X:5914
T:Gan Ainm
R:Jig
S:Frank Simons (Guitar)
H:
N:
D:
Z:Adrian Scahill
M:6/8
L:1/8
K:G
Bee B2A|Bee BAF|Bee Bee|BAF AFD|\
Bee B2A|Bee def|gfe dBG|ABG AFD:||\
A3 d3|BAB dBG|A3 d3|BAF AFD|\
A3 d3|BAB def|gfe dBG|ABG AFD:||


